X:124
T:Poletni Vecer
M:3/4
L:1/8
R:Waltz
K:EBMaj
[G2B2]|"Eb"[E2G2][G3B3][EG]|"Bb7"[F2A2][G3B3][FA]|"Eb"[E6G6]|z2 B,B,B,B,
|
"Eb"[E2G2][G3B3][EG]|"Bb7"[F2A2][G3B3][FA]|"Eb"[E6G6]|z2EDC2|
"Ab"C2[A3c3][GB]|[A2c2][G2B2][F2A2]|"Eb"[E2G2][G3B3][Ac]|[G2B2][F2A2][E2
G2]|
"Bb7"[F2A2][F3A3][DF]|[G2B2][G2B2][F2A2]|"Eb"[E6G6]|z2FE D2|
"Ab"C2 [A3c3][Bd]|[A2c2][G2B2][F2A2]|"Eb"[E2G2][G3B3][Ac]|[G2B2][F2A2][E
2G2]|
"Bb7"[F2A2][F3A3][DF]|[G2B2][G2B2][F2A2]|"Eb"[E6G6]|1z4[G2B2]:|2"Eb"z2ec
Ac||
K:AbMaj|
"Ab"[A3c3f3][Acf][A2c2f2]|z2ecAe|"Eb7"G3eE2|z2eeee|[e3g3][eg][e2g2]|z2[d
2f2][e2g2]|
"Ab"[d3f3][df][c2e2]|z2ecAc|
"Ab"[A3c3f3][Acf][A2c2f2]|z2ecAe|"Eb7"G3eE2|z2eeee|e2[e3g3][df]|[c2e2][=
B2=d2][_B2_d2]|"Ab"[A6c6]|
1z2ecAc:|2"Ab"z6||
